T: Major David Manson
M: 4/4
L: 1/8
K: Dmix
|:D2FE FDDF|A2dA FDDF|G2BG FAFD|F2GF ECCE|
FDFE FDDF|A2dA FDDF|G2BG FAFD|GECE D3A:|
|:d2Ad cAFG|B2AG FED2|BAF2 G2A2|D2FD ECCE|
d2Ad cAFG|B2AG FEDF|G2BG FAFD|GECE D3A:|
